symbolic/24x24/apps/onionshare80.svg

<svg xmlns="http://www.w3.org/2000/svg" width="24" height="24" version="1.1">
 <circle style="opacity:0.2" cx="12" cy="12.5" r="10"/>
 <circle style="fill:#5d105d" cx="12" cy="12" r="10"/>
 <path style="opacity:0.1;fill:#ffffff" d="M 12,2 A 10,10 0 0 0 2,12 10,10 0 0 0 2.01075,12.291 10,10 0 0 1 12,2.5 10,10 0 0 1 21.9895,12.209 10,10 0 0 0 22,12 10,10 0 0 0 12,2 Z"/>
 <path style="opacity:0.2" d="M 12,5.5 A 7,7 0 0 0 6.9902344,7.6191406 L 7.3105469,7.9394531 9.1113281,9.7402344 A 4,4 0 0 1 12,8.5 a 4,4 0 0 1 4,4 h -2.050781 l 3.5,3.5 3.5,-3.5 H 19 a 7,7 0 0 0 -7,-7 z M 6.5507812,9 l -3.5,3.5 H 5 a 7,7 0 0 0 7,7 7,7 0 0 0 5.009766,-2.119141 L 16.689453,17.060547 14.888672,15.259766 A 4,4 0 0 1 12,16.5 4,4 0 0 1 8,12.5 h 2.050781 z"/>
 <path style="fill:#ffffff" d="M 12 5 A 7 7 0 0 0 6.9902344 7.1191406 L 7.3105469 7.4394531 L 9.1113281 9.2402344 A 4 4 0 0 1 12 8 A 4 4 0 0 1 16 12 A 4 4 0 0 1 15.955078 12.568359 L 18.796875 13.644531 A 7 7 0 0 0 19 12 A 7 7 0 0 0 12 5 z M 5.125 10.695312 A 7 7 0 0 0 5 12 A 7 7 0 0 0 12 19 A 7 7 0 0 0 17.009766 16.880859 L 16.689453 16.560547 L 14.888672 14.759766 A 4 4 0 0 1 12 16 A 4 4 0 0 1 8 12 A 4 4 0 0 1 8.0097656 11.779297 L 5.34375 10.914062 L 5.125 10.695312 z"/>
 <path style="fill:#ffffff" d="m 6.55,8.5 3.5,3.5 h -7 z"/>
 <path style="fill:#ffffff" d="m 17.45,15.5 3.5,-3.5 h -7 z"/>
</svg>

<svg xmlns="http://www.w3.org/2000/svg" width="24" height="24"><circle style="opacity:.2" cx="12" cy="12.5" r="10"/><circle style="fill:#5d105d" cx="12" cy="12" r="10"/><path style="opacity:.1;fill:#fff" d="M12 2A10 10 0 0 0 2 12a10 10 0 0 0 .01.291A10 10 0 0 1 12 2.5a10 10 0 0 1 9.99 9.709A10 10 0 0 0 22 12 10 10 0 0 0 12 2z"/><path style="opacity:.2" d="M12 5.5a7 7 0 0 0-5.01 2.12l.32.32 1.801 1.8A4 4 0 0 1 12 8.5a4 4 0 0 1 4 4h-2.05l3.5 3.5 3.5-3.5H19a7 7 0 0 0-7-7zM6.55 9l-3.5 3.5H5a7 7 0 0 0 7 7 7 7 0 0 0 5.01-2.12l-.32-.32-1.801-1.8A4 4 0 0 1 12 16.5a4 4 0 0 1-4-4h2.05z"/><path style="fill:#fff" d="M12 5a7 7 0 0 0-5.01 2.12l.32.32 1.801 1.8A4 4 0 0 1 12 8a4 4 0 0 1 4 4 4 4 0 0 1-.045.568l2.842 1.077A7 7 0 0 0 19 12a7 7 0 0 0-7-7zm-6.875 5.695A7 7 0 0 0 5 12a7 7 0 0 0 7 7 7 7 0 0 0 5.01-2.12l-.32-.32-1.801-1.8A4 4 0 0 1 12 16a4 4 0 0 1-4-4 4 4 0 0 1 .01-.22l-2.666-.866-.219-.219z"/><path style="fill:#fff" d="m6.55 8.5 3.5 3.5h-7zM17.45 15.5l3.5-3.5h-7z"/></svg>
